assets/img/atlantic-a.svg

<svg viewBox="0 0 408.12 494.25" xmlns="http://www.w3.org/2000/svg"><path d="m322.06 290h-47.67c-25.19 0-50.39 0-75.58-.12-3.82 0-6.23 1-8.49 4.37q-61.57 92.97-123.44 185.75c-.63.94-1.22 1.9-2.26 3.52h53.15v10.63h-117.77v-10.15c1.93-.09 3.67-.24 5.41-.24 10.66 0 21.33-.19 32 .07 3.93.1 6.31-1.07 8.53-4.42q32.67-49.49 65.64-98.76 54.79-82.36 109.56-164.65 67.41-101.32 134.86-202.6c2.73-4.1 5.58-8.12 9.22-13.4v483.62h42.92v10.63h-139.26v-10.47h53.18zm-2-191.27-.91-.44c-38.49 60.39-77 120.79-115.78 181.71h116.73z"/></svg>

<svg xmlns="http://www.w3.org/2000/svg" viewBox="0 0 408.12 494.25"><title>Asset 1</title><g id="Layer_2" data-name="Layer 2"><g id="Layer_1-2" data-name="Layer 1"><path d="M322.06,290H274.39c-25.19,0-50.39,0-75.58-.12-3.82,0-6.23,1-8.49,4.37Q128.75,387.22,66.88,480c-.63.94-1.22,1.9-2.26,3.52h53.15v10.63H0V484c1.93-.09,3.67-.24,5.41-.24,10.66,0,21.33-.19,32,.07,3.93.1,6.31-1.07,8.53-4.42q32.67-49.49,65.64-98.76Q166.37,298.29,221.14,216,288.55,114.68,356,13.4c2.73-4.1,5.58-8.12,9.22-13.4V483.62h42.92v10.63H268.88V483.78h53.18Zm-2-191.27-.91-.44c-38.49,60.39-77,120.79-115.78,181.71H320.1Z"/></g></g></svg>
